X:2533
T:Polska från Östergötland
T:Svenska Folkdansar H4 nr 11
O:Östergötland
B:Traditioner av Svenska Folkdansar Häfte 4, nr 11
R:Polska
Z:Nils L
L:1/8
M:3/4
L:1/8
K:F
c2 f2 e>d | c>f g>a g>e | c2 f2 e>f | d>e c2 z2 ::
c2 d2 (Bd) | (dc) (cB) (AB) | c2 d2 (Bd) | (dc) (cB) (AB) |
(c2 f2) A>B | (G2 F2) z2 :|
(:musicend:)
(:music:)
